svgs/sharp-solid/people-simple.svg

<svg xmlns="http://www.w3.org/2000/svg" viewBox="0 0 512 512"><!--! Font Awesome Pro 6.6.0 by @fontawesome - https://fontawesome.com License - https://fontawesome.com/license (Commercial License) Copyright 2024 Fonticons, Inc. --><path d="M128 128A64 64 0 1 0 128 0a64 64 0 1 0 0 128zM232 352l-8-192L32 160 24 352l40 0 0 160 128 0 0-160 40 0zM384 128A64 64 0 1 0 384 0a64 64 0 1 0 0 128zM512 384L448 160l-128 0L256 384l64 0 0 128 128 0 0-128 64 0z"/></svg>

<svg xmlns="http://www.w3.org/2000/svg" viewBox="0 0 512 512"><!--! Font Awesome Pro 6.5.2 by @fontawesome - https://fontawesome.com License - https://fontawesome.com/license (Commercial License) Copyright 2024 Fonticons, Inc. --><path d="M128 128A64 64 0 1 0 128 0a64 64 0 1 0 0 128zM232 352l-8-192H32L24 352H64V512H192V352h40zM384 128A64 64 0 1 0 384 0a64 64 0 1 0 0 128zM512 384L448 160H320L256 384h64V512H448V384h64z"/></svg>
